addons/run-configs/editor/assets/PlayConfig.svg

<?xml version="1.0" encoding="UTF-8" standalone="no"?>
<svg
   height="16"
   viewBox="0 0 16 16"
   width="16"
   version="1.1"
   id="svg1"
   sodipodi:docname="Play.svg"
   xml:space="preserve"
   inkscape:version="1.3 (0e150ed6c4, 2023-07-21)"
   xmlns:inkscape="http://www.inkscape.org/namespaces/inkscape"
   xmlns:sodipodi="http://sodipodi.sourceforge.net/DTD/sodipodi-0.dtd"
   xmlns="http://www.w3.org/2000/svg"
   xmlns:svg="http://www.w3.org/2000/svg"><defs
     id="defs1" /><sodipodi:namedview
     id="namedview1"
     pagecolor="#505050"
     bordercolor="#ffffff"
     borderopacity="1"
     inkscape:showpageshadow="0"
     inkscape:pageopacity="0"
     inkscape:pagecheckerboard="1"
     inkscape:deskcolor="#505050"
     inkscape:zoom="17.169437"
     inkscape:cx="-8.9694266"
     inkscape:cy="10.978811"
     inkscape:window-width="1920"
     inkscape:window-height="991"
     inkscape:window-x="-9"
     inkscape:window-y="-9"
     inkscape:window-maximized="1"
     inkscape:current-layer="svg1" /><path
     d="m 1.000484,12 a 1,1 0 0 0 1.555,0.832 l 6,-4 a 1,1 0 0 0 0,-1.664 l -6,-4 A 1,1 0 0 0 1.000484,4 Z"
     fill="#e0e0e0"
     id="path1" /><path
     d="m 15.457993,7 -2.258,-0.565 c -0.07591,-0.236367 -0.169511,-0.466684 -0.28,-0.689 l 1.195,-1.988 -1.415,-1.414 -1.994,1.195 c -0.221,-0.112 -0.45,-0.207 -0.685,-0.285 L 9.457993,1 h -2 L 6.8939932,3.258 c -0.15,0.048 -0.292,0.115 -0.436,0.177 L 5.9843767,4.5559846 c 0,0 0.020775,-0.00323 2.0696163,1.4440154 2.501502,0 2.476146,4 0,4 -1.9705548,1.331149 -1.9818599,1.352047 -1.9818599,1.352047 L 6.4579932,12.58 c 0.145,0.064 0.287,0.132 0.438,0.182 l 0.5619998,2.252 h 2 l 0.565,-2.257 c 0.235628,-0.07617 0.465262,-0.169756 0.687,-0.28 l 1.99,1.194 1.414,-1.414 -1.195,-1.994 c 0.111838,-0.221302 0.2071,-0.450598 0.285,-0.686 l 2.254,-0.561 v -2 z"
     fill="#e0e0e0"
     id="path1-0"
     sodipodi:nodetypes="cccccccccccccccccccccccccccc" /></svg>

<?xml version="1.0" encoding="UTF-8" standalone="no"?>
<!DOCTYPE svg PUBLIC "-//W3C//DTD SVG 1.1//EN" "http://www.w3.org/Graphics/SVG/1.1/DTD/svg11.dtd">
<svg width="100%" height="100%" viewBox="0 0 32 32" version="1.1" xmlns="http://www.w3.org/2000/svg" xmlns:xlink="http://www.w3.org/1999/xlink" xml:space="preserve" xmlns:serif="http://www.serif.com/" style="fill-rule:evenodd;clip-rule:evenodd;stroke-linejoin:round;stroke-miterlimit:2;">
    <g id="path1" transform="matrix(2,0,0,2,0,0)">
        <path d="M1,4L1,12C1,12.549 1.452,13 2,13C2.198,13 2.391,12.942 2.555,12.832L8.555,8.832C8.833,8.647 9.001,8.334 9.001,8C9.001,7.666 8.833,7.353 8.555,7.168L2.555,3.168C2.391,3.058 2.198,3 2,3C1.452,3 1,3.451 1,4Z" style="fill:rgb(224,224,224);fill-rule:nonzero;"/>
    </g>
    <g id="path1-0" transform="matrix(2,0,0,2,0,0)">
        <path d="M15.458,7L13.2,6.435C13.124,6.199 13.03,5.968 12.92,5.746L14.115,3.758L12.7,2.344L10.706,3.539C10.485,3.427 10.256,3.332 10.021,3.254L9.458,1L7.458,1L6.894,3.258C6.744,3.306 6.602,3.373 6.458,3.435L5.984,4.556C5.984,4.556 6.005,4.553 8.054,6C10.555,6 10.53,10 8.054,10C6.083,11.331 6.072,11.352 6.072,11.352L6.458,12.58C6.603,12.644 6.745,12.712 6.896,12.762L7.458,15.014L9.458,15.014L10.023,12.757C10.259,12.681 10.488,12.587 10.71,12.477L12.7,13.671L14.114,12.257L12.919,10.263C13.031,10.042 13.126,9.812 13.204,9.577L15.458,9.016L15.458,7Z" style="fill:rgb(224,224,224);fill-rule:nonzero;"/>
    </g>
</svg>
